X: 19797
T: Jer O'Connell's
R: polka
M: 2/4
K: Dmajor
AD =FG|A2 A>B|=cA AG|E=F G>G|AD =FG|
A2 AB|=cA GA|ED D2:|:Ad d>e|fd ed|=cA AB|
=cd e2|Ad d>e|fd ed|=cA GE|FD D2|Ad d>e|fd ed|
=cA AB|=cd e2|Ad d>e|f2 ed|=cA GE|FD D2:|

